; generated by PrusaSlicer 2.6.1+win64 on 2024-02-04 at 20:51:39 UTC

; 

; external perimeters extrusion width = 0.45mm
; perimeters extrusion width = 0.45mm
; infill extrusion width = 0.45mm
; solid infill extrusion width = 0.45mm
; top infill extrusion width = 0.45mm
; support material extrusion width = 0.35mm
; first layer extrusion width = 0.42mm

M73 P0 R109
M201 X9000 Y9000 Z500 E10000 ; sets maximum accelerations, mm/sec^2
M203 X500 Y500 Z12 E120 ; sets maximum feedrates, mm / sec
M204 S2000 T1500 ; sets acceleration (S) and retract acceleration (R), mm/sec^2
M205 X10.00 Y10.00 Z0.20 E2.50 ; sets the jerk limits, mm/sec
M205 S0 T0 ; sets the minimum extruding and travel feed rate, mm/sec
;TYPE:Custom
M862.3 P "MK2S" ; printer model check
M862.1 P0.4 ; nozzle diameter check
M115 U3.2.3 ; tell printer latest fw version
G90 ; use absolute coordinates
M83 ; extruder relative mode
M204 S2000 T1500 ; MK2 firmware only supports the old M204 format
M104 S215 ; set extruder temp
M140 S60 ; set bed temp
M190 S60 ; wait for bed temp
M109 S215 ; wait for extruder temp
G28 W ; home all without mesh bed level
G80 ; mesh bed leveling
G1 Z0.2 F720
G1 Y-2 F1000 ; go outside print area
G92 E0
G1 X60 E9 F1000 ; intro line
G1 X100 E12.5 F1000 ; intro line
G92 E0
G21 ; set units to millimeters
G90 ; use absolute coordinates
M83 ; use relative distances for extrusion
M900 K0.05 ; Filament gcode LA 1.5
M900 K30 ; Filament gcode LA 1.0

M107
;LAYER_CHANGE
;Z:0.2
;HEIGHT:0.2
;BEFORE_LAYER_CHANGE
G92 E0.0
;0.2


G1 E-.8 F2100
G1 Z.4 F720
;AFTER_LAYER_CHANGE
;0.2
G1 X78.015 Y88.693 F10800
G1 Z.2 F720
G1 E.8 F2100
M204 S800
;TYPE:Skirt/Brim
;WIDTH:0.42
G1 F1200
G1 X79.06 Y87.817 E.04275
G1 X80 Y87.623 E.03009
G1 X170 Y87.623 E2.82189
G1 X171.307 Y88.015 E.04278
G1 X172.183 Y89.06 E.04275
G1 X172.377 Y90 E.03009
G1 X172.377 Y120 E.94063
G1 X171.985 Y121.307 E.04278
G1 X170.94 Y122.183 E.04275
G1 X170 Y122.377 E.03009
G1 X80 Y122.377 E2.82189
G1 X78.693 Y121.985 E.04278
G1 X77.817 Y120.94 E.04275
G1 X77.623 Y120 E.03009
G1 X77.623 Y90 E.94063
G1 X77.997 Y88.75 E.04091
M204 S1000
; printing object MagnetTester.STL id:0 copy 0
;WIPE_START
G1 F8640
G1 X79.06 Y87.817 E-.32658
G1 X80 Y87.623 E-.22162
G1 X81.091 Y87.623 E-.2518
;WIPE_END
G1 Z.6 F720
G1 X96.479 Y96.611 F10800
G1 Z.2 F720
G1 E.8 F2100
M204 S800
;TYPE:Support material
G1 F1200
G1 X97.913 Y96.996 E.04655
G1 X99.259 Y97.623 E.04656
G1 X100.475 Y98.475 E.04655
G1 X101.525 Y99.525 E.04656
G1 X102.377 Y100.741 E.04655
G1 X103.004 Y102.087 E.04656
G1 X103.389 Y103.521 E.04655
G1 X103.518 Y105 E.04655
G1 X103.389 Y106.479 E.04655
G1 X103.004 Y107.913 E.04655
G1 X102.377 Y109.259 E.04656
G1 X101.525 Y110.475 E.04655
G1 X100.475 Y111.525 E.04656
G1 X99.259 Y112.377 E.04655
G1 X97.913 Y113.004 E.04656
G1 X96.479 Y113.389 E.04655
G1 X95 Y113.518 E.04655
G1 X93.521 Y113.389 E.04655
G1 X92.087 Y113.004 E.04655
G1 X90.741 Y112.377 E.04656
G1 X89.525 Y111.525 E.04655
G1 X88.475 Y110.475 E.04656
G1 X87.623 Y109.259 E.04655
G1 X86.996 Y107.913 E.04656
G1 X86.611 Y106.479 E.04655
G1 X86.482 Y105 E.04655
G1 X86.611 Y103.521 E.04655
G1 X86.996 Y102.087 E.04655
G1 X87.623 Y100.741 E.04656
G1 X88.475 Y99.525 E.04655
G1 X89.525 Y98.475 E.04656
G1 X90.741 Y97.623 E.04655
G1 X92.087 Y96.996 E.04656
G1 X93.521 Y96.611 E.04655
G1 X95 Y96.482 E.04655
G1 X96.423 Y96.606 E.04479
M204 S1000
G1 X102.794 Y107.963 F10800
M204 S800
G1 F1200
G1 X102.794 Y102.613 E.16775
G1 X102.684 Y102.203 E.01331
G1 X102.375 Y101.54 E.02293
G1 X102.375 Y108.46 E.21697
G1 X102.082 Y109.089 E.02176
G1 X101.956 Y109.268 E.00686
G1 X101.956 Y100.732 E.26764
G1 X101.537 Y100.133 E.02292
G1 X101.537 Y109.867 E.3052
G1 X101.264 Y110.256 E.0149
G1 X101.118 Y110.402 E.00647
G1 X101.118 Y99.598 E.33875
G1 X100.699 Y99.179 E.01858
G1 X100.699 Y110.821 E.36503
G1 X100.28 Y111.24 E.01858
G1 X100.28 Y98.76 E.3913
G1 X99.861 Y98.459 E.01618
G1 X99.861 Y111.541 E.41018
G1 X99.442 Y111.834 E.01603
G1 X99.442 Y98.166 E.42855
G1 X99.023 Y97.888 E.01577
G1 X99.023 Y112.112 E.44598
G1 X98.604 Y112.308 E.0145
G1 X98.604 Y97.692 E.45827
G1 X98.185 Y97.497 E.01449
G1 X98.185 Y112.503 E.4705
G1 X97.766 Y112.692 E.01441
M73 P0 R108
G1 X97.766 Y97.308 E.48235
G1 X97.348 Y97.195 E.01358
G1 X97.348 Y112.805 E.48944
G1 X96.929 Y112.917 E.0136
G1 X96.929 Y97.083 E.49646
G1 X96.51 Y96.971 E.0136
G1 X96.51 Y113.029 E.50349
G1 X96.42 Y113.053 E.00292
G1 X96.091 Y113.082 E.01036
G1 X96.091 Y96.918 E.50681
G1 X95.672 Y96.881 E.01319
G1 X95.672 Y113.119 E.50913
G1 X95.253 Y113.155 E.01319
G1 X95.253 Y96.845 E.51139
G1 X95 Y96.823 E.00796
G1 X94.834 Y96.837 E.00522
G1 X94.834 Y113.163 E.51189
G1 X94.415 Y113.126 E.01319
G1 X94.415 Y96.874 E.50957
G1 X93.996 Y96.91 E.01319
G1 X93.996 Y113.09 E.50731
G1 X93.577 Y113.052 E.01319
G1 X93.577 Y96.948 E.50493
G1 X93.158 Y97.06 E.0136
G1 X93.158 Y112.94 E.49791
G1 X92.739 Y112.828 E.0136
G1 X92.739 Y97.172 E.49088
G1 X92.32 Y97.284 E.0136
G1 X92.32 Y112.716 E.48386
G1 X92.203 Y112.684 E.0038
G1 X91.901 Y112.543 E.01045
G1 X91.901 Y97.457 E.47301
G1 X91.482 Y97.652 E.01449
G1 X91.482 Y112.348 E.46078
G1 X91.063 Y112.153 E.01449
G1 X91.063 Y97.847 E.44855
G1 X90.911 Y97.918 E.00526
G1 X90.644 Y98.105 E.01022
G1 X90.644 Y111.895 E.43238
G1 X90.225 Y111.601 E.01605
G1 X90.225 Y98.399 E.41394
G1 X89.806 Y98.692 E.01603
G1 X89.806 Y111.308 E.39557
G1 X89.387 Y110.908 E.01816
G1 X89.387 Y99.092 E.37048
G1 X88.968 Y99.511 E.01858
G1 X88.968 Y110.489 E.34421
G1 X88.736 Y110.256 E.01031
G1 X88.549 Y109.99 E.01019
G1 X88.549 Y100.01 E.31292
G1 X88.13 Y100.609 E.02292
G1 X88.13 Y109.391 E.27535
G1 X87.918 Y109.089 E.01157
G1 X87.711 Y108.645 E.01536
G1 X87.711 Y101.355 E.22857
G1 X87.316 Y102.203 E.02933
G1 X87.292 Y102.291 E.00286
G1 X87.292 Y107.709 E.16988
G1 X86.947 Y106.42 E.04184
G1 X86.873 Y105.578 E.0265
G1 X86.873 Y103.199 E.07459
M204 S1000
;WIPE_START
G1 F8640
G1 X86.873 Y105.578 E-.54932
G1 X86.947 Y106.42 E-.19517
G1 X87.009 Y106.652 E-.05551
;WIPE_END
G1 Z.6 F720
G1 X126.479 Y96.611 F10800
G1 Z.2 F720
G1 E.8 F2100
M204 S800
G1 F1200
G1 X127.913 Y96.996 E.04655
G1 X129.259 Y97.623 E.04656
G1 X130.475 Y98.475 E.04655
G1 X131.525 Y99.525 E.04656
G1 X132.377 Y100.741 E.04655
G1 X133.004 Y102.087 E.04656
G1 X133.389 Y103.521 E.04655
G1 X133.518 Y105 E.04655
G1 X133.389 Y106.479 E.04655
G1 X133.004 Y107.913 E.04655
G1 X132.377 Y109.259 E.04656
G1 X131.525 Y110.475 E.04655
G1 X130.475 Y111.525 E.04656
G1 X129.259 Y112.377 E.04655
G1 X127.913 Y113.004 E.04656
G1 X126.479 Y113.389 E.04655
G1 X125 Y113.518 E.04655
G1 X123.521 Y113.389 E.04655
G1 X122.087 Y113.004 E.04655
G1 X120.741 Y112.377 E.04656
G1 X119.525 Y111.525 E.04655
G1 X118.475 Y110.475 E.04656
G1 X117.623 Y109.259 E.04655
G1 X116.996 Y107.913 E.04656
G1 X116.611 Y106.479 E.04655
G1 X116.482 Y105 E.04655
G1 X116.611 Y103.521 E.04655
G1 X116.996 Y102.087 E.04655
G1 X117.623 Y100.741 E.04656
G1 X118.475 Y99.525 E.04655
G1 X119.525 Y98.475 E.04656
G1 X120.741 Y97.623 E.04655
G1 X122.087 Y96.996 E.04656
G1 X123.521 Y96.611 E.04655
G1 X125 Y96.482 E.04655
G1 X126.423 Y96.606 E.04479
M204 S1000
G1 X132.961 Y107.422 F10800
M204 S800
G1 F1200
G1 X132.961 Y103.234 E.13131
G1 X132.684 Y102.203 E.03347
G1 X132.542 Y101.897 E.01058
G1 X132.542 Y108.103 E.19458
G1 X132.123 Y109.002 E.0311
G1 X132.123 Y100.998 E.25096
G1 X132.082 Y100.911 E.00302
G1 X131.704 Y100.371 E.02067
G1 X131.704 Y109.629 E.29028
G1 X131.285 Y110.227 E.02289
G1 X131.285 Y99.773 E.32778
G1 X130.866 Y99.345 E.01878
G1 X130.866 Y110.655 E.35462
G1 X130.447 Y111.074 E.01858
G1 X130.447 Y98.926 E.38089
G1 X130.256 Y98.736 E.00845
G1 X130.028 Y98.576 E.00873
G1 X130.028 Y111.424 E.40284
G1 X129.609 Y111.718 E.01605
G1 X129.609 Y98.282 E.42128
G1 X129.19 Y97.989 E.01603
G1 X129.19 Y112.011 E.43965
G1 X129.089 Y112.082 E.00387
G1 X128.771 Y112.23 E.011
G1 X128.771 Y97.77 E.45338
G1 X128.352 Y97.574 E.0145
G1 X128.352 Y112.426 E.46567
G1 X127.933 Y112.621 E.01449
G1 X127.933 Y97.379 E.4779
G1 X127.797 Y97.316 E.0047
G1 X127.514 Y97.24 E.00919
G1 X127.514 Y112.76 E.48662
G1 X127.095 Y112.872 E.0136
G1 X127.095 Y97.128 E.49364
G1 X126.676 Y97.015 E.01361
G1 X126.676 Y112.985 E.50073
G1 X126.42 Y113.053 E.00831
G1 X126.257 Y113.068 E.00513
G1 X126.257 Y96.932 E.50593
G1 X125.838 Y96.896 E.01319
G1 X125.838 Y113.104 E.50819
G1 X125.419 Y113.141 E.01319
G1 X125.419 Y96.859 E.51051
G1 X125 Y96.823 E.01319
M73 P1 R108
G1 X125 Y113.177 E.51277
G1 X124.581 Y113.141 E.01319
G1 X124.581 Y96.859 E.51051
G1 X124.162 Y96.896 E.01319
G1 X124.162 Y113.104 E.50819
G1 X123.743 Y113.068 E.01319
G1 X123.743 Y96.932 E.50593
G1 X123.58 Y96.947 E.00513
G1 X123.324 Y97.015 E.00831
G1 X123.324 Y112.985 E.50073
G1 X122.905 Y112.872 E.01361
G1 X122.905 Y97.128 E.49364
G1 X122.486 Y97.24 E.0136
G1 X122.486 Y112.76 E.48662
G1 X122.203 Y112.684 E.00919
G1 X122.067 Y112.621 E.0047
G1 X122.067 Y97.379 E.4779
G1 X121.648 Y97.574 E.01449
G1 X121.648 Y112.426 E.46567
G1 X121.229 Y112.23 E.0145
G1 X121.229 Y97.77 E.45338
G1 X120.911 Y97.918 E.011
G1 X120.81 Y97.989 E.00387
G1 X120.81 Y112.011 E.43965
G1 X120.391 Y111.718 E.01603
G1 X120.391 Y98.282 E.42128
G1 X119.972 Y98.576 E.01605
G1 X119.972 Y111.424 E.40284
G1 X119.744 Y111.264 E.00873
G1 X119.553 Y111.074 E.00845
G1 X119.553 Y98.926 E.38089
G1 X119.134 Y99.345 E.01858
G1 X119.134 Y110.655 E.35462
G1 X118.715 Y110.227 E.01878
G1 X118.715 Y99.773 E.32778
G1 X118.296 Y100.371 E.02289
G1 X118.296 Y109.629 E.29028
G1 X117.918 Y109.089 E.02067
G1 X117.877 Y109.001 E.00304
G1 X117.877 Y100.999 E.2509
G1 X117.458 Y101.897 E.03107
G1 X117.458 Y108.103 E.19458
G1 X117.316 Y107.797 E.01058
G1 X117.039 Y106.766 E.03347
G1 X117.039 Y102.578 E.13131
M204 S1000
;WIPE_START
G1 F8640
G1 X117.039 Y106.043 E-.8
;WIPE_END
G1 Z.6 F720
G1 X156.479 Y96.611 F10800
G1 Z.2 F720
G1 E.8 F2100
M204 S800
G1 F1200
G1 X157.913 Y96.996 E.04655
G1 X159.259 Y97.623 E.04656
G1 X160.475 Y98.475 E.04655
G1 X161.525 Y99.525 E.04656
G1 X162.377 Y100.741 E.04655
G1 X163.004 Y102.087 E.04656
G1 X163.389 Y103.521 E.04655
G1 X163.518 Y105 E.04655
G1 X163.389 Y106.479 E.04655
G1 X163.004 Y107.913 E.04655
G1 X162.377 Y109.259 E.04656
G1 X161.525 Y110.475 E.04655
G1 X160.475 Y111.525 E.04656
G1 X159.259 Y112.377 E.04655
G1 X157.913 Y113.004 E.04656
G1 X156.479 Y113.389 E.04655
G1 X155 Y113.518 E.04655
G1 X153.521 Y113.389 E.04655
G1 X152.087 Y113.004 E.04655
G1 X150.741 Y112.377 E.04656
G1 X149.525 Y111.525 E.04655
G1 X148.475 Y110.475 E.04656
G1 X147.623 Y109.259 E.04655
G1 X146.996 Y107.913 E.04656
G1 X146.611 Y106.479 E.04655
G1 X146.482 Y105 E.04655
G1 X146.611 Y103.521 E.04655
G1 X146.996 Y102.087 E.04655
G1 X147.623 Y100.741 E.04656
G1 X148.475 Y99.525 E.04655
G1 X149.525 Y98.475 E.04656
G1 X150.741 Y97.623 E.04655
G1 X152.087 Y96.996 E.04656
G1 X153.521 Y96.611 E.04655
G1 X155 Y96.482 E.04655
G1 X156.423 Y96.606 E.04479
M204 S1000
G1 X163.127 Y106.801 F10800
M204 S800
G1 F1200
G1 X163.127 Y104.422 E.07459
G1 X163.053 Y103.58 E.0265
G1 X162.708 Y102.291 E.04184
G1 X162.708 Y107.709 E.16988
G1 X162.684 Y107.797 E.00286
G1 X162.289 Y108.645 E.02933
G1 X162.289 Y101.355 E.22857
G1 X162.082 Y100.911 E.01536
G1 X161.87 Y100.609 E.01157
G1 X161.87 Y109.391 E.27535
G1 X161.451 Y109.99 E.02292
G1 X161.451 Y100.01 E.31292
G1 X161.264 Y99.744 E.01019
G1 X161.032 Y99.511 E.01031
G1 X161.032 Y110.489 E.34421
G1 X160.613 Y110.908 E.01858
G1 X160.613 Y99.092 E.37048
G1 X160.194 Y98.692 E.01816
G1 X160.194 Y111.308 E.39557
G1 X159.775 Y111.601 E.01603
G1 X159.775 Y98.399 E.41394
G1 X159.356 Y98.105 E.01605
G1 X159.356 Y111.895 E.43238
G1 X159.089 Y112.082 E.01022
G1 X158.937 Y112.153 E.00526
G1 X158.937 Y97.847 E.44855
G1 X158.518 Y97.652 E.01449
G1 X158.518 Y112.348 E.46078
G1 X158.099 Y112.543 E.01449
M73 P1 R107
G1 X158.099 Y97.457 E.47301
G1 X157.797 Y97.316 E.01045
G1 X157.68 Y97.284 E.0038
G1 X157.68 Y112.716 E.48386
G1 X157.261 Y112.828 E.0136
G1 X157.261 Y97.172 E.49088
G1 X156.842 Y97.06 E.0136
G1 X156.842 Y112.94 E.49791
G1 X156.423 Y113.052 E.0136
G1 X156.423 Y96.948 E.50493
G1 X156.004 Y96.91 E.01319
G1 X156.004 Y113.09 E.50731
G1 X155.585 Y113.126 E.01319
G1 X155.585 Y96.874 E.50957
G1 X155.166 Y96.837 E.01319
G1 X155.166 Y113.163 E.51189
G1 X155 Y113.178 E.00523
G1 X154.747 Y113.155 E.00797
G1 X154.747 Y96.845 E.51139
G1 X154.328 Y96.881 E.01319
G1 X154.328 Y113.119 E.50913
G1 X153.909 Y113.082 E.01319
G1 X153.909 Y96.918 E.50681
G1 X153.58 Y96.947 E.01036
G1 X153.49 Y96.971 E.00292
G1 X153.49 Y113.029 E.50349
G1 X153.071 Y112.917 E.0136
G1 X153.071 Y97.083 E.49646
G1 X152.652 Y97.195 E.0136
G1 X152.652 Y112.805 E.48944
G1 X152.234 Y112.692 E.01358
G1 X152.234 Y97.308 E.48235
G1 X151.815 Y97.497 E.01441
G1 X151.815 Y112.503 E.4705
G1 X151.396 Y112.308 E.01449
G1 X151.396 Y97.692 E.45827
G1 X150.977 Y97.888 E.0145
G1 X150.977 Y112.112 E.44598
G1 X150.558 Y111.834 E.01577
G1 X150.558 Y98.166 E.42855
G1 X150.139 Y98.459 E.01603
G1 X150.139 Y111.541 E.41018
G1 X149.72 Y111.24 E.01618
G1 X149.72 Y98.76 E.3913
G1 X149.301 Y99.179 E.01858
G1 X149.301 Y110.821 E.36503
G1 X148.882 Y110.402 E.01858
G1 X148.882 Y99.598 E.33875
G1 X148.736 Y99.744 E.00647
G1 X148.463 Y100.133 E.0149
G1 X148.463 Y109.867 E.3052
G1 X148.044 Y109.268 E.02292
G1 X148.044 Y100.732 E.26764
G1 X147.918 Y100.911 E.00686
G1 X147.625 Y101.54 E.02176
G1 X147.625 Y108.46 E.21697
G1 X147.316 Y107.797 E.02293
G1 X147.206 Y107.387 E.01331
G1 X147.206 Y102.037 E.16775
M204 S1000
;WIPE_START
G1 F8640
G1 X147.206 Y105.502 E-.8
;WIPE_END
G1 Z.6 F720
G1 X80.787 Y90.787 F10800
G1 Z.2 F720
G1 E.8 F2100
M204 S800
;TYPE:Perimeter
;WIDTH:0.419999
G1 F1200
G1 X169.213 Y90.787 E2.77253
G1 X169.213 Y119.213 E.89128
G1 X80.787 Y119.213 E2.77253
G1 X80.787 Y90.847 E.88939
M204 S1000
G1 X80.41 Y90.41 F10800
M204 S800
;TYPE:External perimeter
G1 F1200
G1 X169.59 Y90.41 E2.79617
G1 X169.59 Y119.59 E.91492
G1 X80.41 Y119.59 E2.79617
G1 X80.41 Y90.47 E.91304
M204 S1000
M73 P2 R107
G1 X80.808 Y90.452 F10800
;WIPE_START
G1 F8640
G1 X83.875 Y90.468 E-.8
;WIPE_END
G1 Z.6 F720
G1 X164.64 Y103.318 F10800
G1 Z.2 F720
G1 E.8 F2100
M204 S800
;TYPE:Perimeter
G1 F1200
G1 X164.786 Y105.049 E.05447
G1 X164.629 Y106.748 E.0535
G1 X164.179 Y108.393 E.05347
G1 X163.45 Y109.936 E.05351
G1 X162.528 Y111.252 E.05038
G1 X161.252 Y112.528 E.05658
G1 X159.936 Y113.45 E.05038
G1 X158.393 Y114.179 E.05351
G1 X156.748 Y114.629 E.05347
G1 X155.049 Y114.786 E.0535
G1 X153.349 Y114.646 E.05348
G1 X151.699 Y114.212 E.05349
G1 X150.064 Y113.45 E.05656
G1 X148.672 Y112.465 E.05347
G1 X147.472 Y111.252 E.0535
G1 X146.55 Y109.936 E.05038
G1 X146.274 Y109.365 E.01989
G1 X145.788 Y108.301 E.03668
G1 X145.383 Y106.791 E.04902
G1 X145.214 Y105.049 E.05488
G1 X145.354 Y103.349 E.05348
G1 X145.788 Y101.699 E.05349
G1 X146.55 Y100.064 E.05656
G1 X147.472 Y98.748 E.05038
G1 X148.672 Y97.535 E.0535
G1 X150.064 Y96.55 E.05347
G1 X151.607 Y95.821 E.05351
G1 X153.252 Y95.371 E.05347
G1 X154.998 Y95.218 E.05495
G1 X156.748 Y95.371 E.05508
G1 X158.393 Y95.821 E.05347
G1 X159.936 Y96.55 E.05351
G1 X161.252 Y97.472 E.05038
G1 X161.896 Y98.104 E.02829
G1 X162.528 Y98.748 E.02829
G1 X163.45 Y100.064 E.05038
G1 X164.179 Y101.607 E.05351
G1 X164.63 Y103.259 E.05369
M204 S1000
G1 X164.271 Y103.398 F10800
M204 S800
;TYPE:External perimeter
G1 F1200
G1 X164.41 Y105.016 E.05092
G1 X164.27 Y106.618 E.05042
G1 X163.848 Y108.203 E.05143
G1 X163.158 Y109.691 E.05143
G1 X162.219 Y111.036 E.05143
G1 X161.061 Y112.198 E.05144
G1 X159.719 Y113.141 E.05143
G1 X158.234 Y113.837 E.05142
G1 X156.65 Y114.264 E.05144
G1 X155.016 Y114.41 E.05144
G1 X153.382 Y114.27 E.05142
G1 X151.797 Y113.848 E.05143
G1 X150.281 Y113.141 E.05245
G1 X148.939 Y112.198 E.05143
G1 X147.781 Y111.036 E.05144
G1 X146.859 Y109.719 E.05041
G1 X146.616 Y109.205 E.01783
G1 X146.152 Y108.203 E.03462
G1 X145.748 Y106.696 E.04892
G1 X145.59 Y105.016 E.05291
G1 X145.73 Y103.382 E.05142
G1 X146.152 Y101.797 E.05143
G1 X146.859 Y100.281 E.05245
G1 X147.802 Y98.939 E.05143
G1 X148.939 Y97.802 E.05042
G1 X150.281 Y96.859 E.05143
G1 X151.766 Y96.163 E.05142
G1 X153.35 Y95.736 E.05144
